X:1
T:Hagåtña, 77.77.77.77.77
T:Hagåtña, 77.77.77.77.77
T:William Batchelder Bradbury, 1864
T:Public Domain Courtesy of the Cyber Hymnal™
C:William Batchelder Bradbury, 1864
Z:Public Domain
Z:Courtesy of the Cyber Hymnal™
%%score ( 1 2 ) ( 3 4 )
L:1/8
Q:1/4=110
M:4/4
K:A
V:1 treble 
V:2 treble 
V:3 bass 
V:4 bass 
V:1
 [A,C][B,D] | [CE]2 [CE]2 [CE]2 [CE]2 | [Ec]6 [DB][CA] | [EB]2 [EB]2 [EB]3 [DB] | %4
 [CA]6 [A,C][B,D] | [CE]2 [CE]2 [CE]2 [CE]2 | [Ec]6 [DB][CA] | [EB]2 E2 [Ec]3 [DB] | %8
 [CA]6 [EG][FA] | [GB]2 [GB]2 [GB]2 [Ge]2 | [GB]6 [Ge][Ge] | %11
 ([F^d][Ac]) ([GB][FA]) ([EG][GB]) ([FA][^DF]) | E6 [EA][DB] | [Cc]2 [Ec]2 [Ec]2 [=Ge]2 | %14
 ([Ge]2 [Fd]2) [Fc]2 [FB]2 | [EA]2 [Ec]2 [EB]2 [DE]2 | c6 [CA][DB] | [Ec]2 [Ec]2 [Ec]2 [=Ge]2 | %18
 ([Ge]2 [Fd]2) [Fc]2 [FB]2 | [EA]2 [Ec]2 [Ec]3 [DB] | [CA]6 |] %21
V:2
 x2 | x8 | x8 | x8 | x8 | x8 | x8 | x2 E2 x4 | x8 | x8 | x8 | x8 | E6 x2 | x8 | x8 | x8 | %16
 (C2 E4) x2 | x8 | x8 | x8 | x6 |] %21
V:3
 [A,,E,][A,,E,] | [A,,E,]2 [A,,A,]2 [A,,A,]2 [A,,A,]2 | [A,,A,]6 [A,,E,][A,,E,] | %3
 [E,G,]2 [E,G,]2 [E,G,]3 [E,G,] | [A,,A,]6 [A,,E,][A,,E,] | [A,,A,]2 [A,,A,]2 [A,,A,]2 [A,,A,]2 | %6
 [A,,A,]6 [A,,E,][A,,E,] | [E,G,]2 [E,G,]2 [E,A,]3 [E,G,] | A,6 [E,B,][E,B,] | %9
 [E,B,]2 [E,B,]2 [E,B,]2 [E,B,]2 | [E,B,]6 [E,B,][E,B,] | B,2 B,2 [B,,B,]2 (B,A,) | %12
 ([E,G,]4 [E,G,][D,B,])[C,A,][B,,G,] | [A,,A,]2 [A,,A,]2 A,2 A,2 | [D,A,]4 [D,A,]2 [D,D]2 | %15
 [E,C]2 [E,A,]2 [E,G,]2 [E,B,]2 | A,6 [A,,A,][A,,A,] | [A,,A,]2 [A,,A,]2 A,2 A,2 | %18
 [D,A,]4 [D,A,]2 [D,D]2 | [E,C]2 [E,A,]2 [E,A,]3 [E,G,] | [A,,A,]6 |] %21
V:4
 x2 | x8 | x8 | x8 | x8 | x8 | x8 | x8 | A,6 x2 | x8 | x8 | B,2 B,2 B,,2 x2 | x8 | x4 A,2 A,2 | %14
 x8 | x8 | A,6 x2 | x4 A,2 A,2 | x8 | x8 | x6 |] %21

